assets/images/mastercard.svg

<svg width="34" height="24" viewBox="0 0 34 24" fill="none" xmlns="http://www.w3.org/2000/svg">
<rect x="0.5" y="0.5" width="33" height="23" rx="3.5" fill="white"/>
<path fill-rule="evenodd" clip-rule="evenodd" d="M17.179 16.8307C15.9949 17.8288 14.459 18.4312 12.7807 18.4312C9.03582 18.4312 6 15.4316 6 11.7312C6 8.03094 9.03582 5.03125 12.7807 5.03125C14.459 5.03125 15.9949 5.63375 17.179 6.63179C18.363 5.63375 19.8989 5.03125 21.5773 5.03125C25.3221 5.03125 28.358 8.03094 28.358 11.7312C28.358 15.4316 25.3221 18.4312 21.5773 18.4312C19.8989 18.4312 18.363 17.8288 17.179 16.8307Z" fill="#ED0006"/>
<path fill-rule="evenodd" clip-rule="evenodd" d="M17.1792 16.8307C18.6371 15.6018 19.5616 13.7732 19.5616 11.7312C19.5616 9.68929 18.6371 7.86069 17.1792 6.63179C18.3632 5.63375 19.8992 5.03125 21.5775 5.03125C25.3224 5.03125 28.3582 8.03094 28.3582 11.7312C28.3582 15.4316 25.3224 18.4312 21.5775 18.4312C19.8992 18.4312 18.3632 17.8288 17.1792 16.8307Z" fill="#F9A000"/>
<path fill-rule="evenodd" clip-rule="evenodd" d="M17.1788 16.8317C18.6367 15.6028 19.5611 13.7742 19.5611 11.7322C19.5611 9.69031 18.6367 7.86172 17.1788 6.63281C15.7208 7.86172 14.7964 9.69031 14.7964 11.7322C14.7964 13.7742 15.7208 15.6028 17.1788 16.8317Z" fill="#FF5E00"/>
<rect x="0.5" y="0.5" width="33" height="23" rx="3.5" stroke="#EDEDF2"/>
</svg>

<svg width="34" height="24" fill="none" xmlns="http://www.w3.org/2000/svg"><rect x=".5" y=".5" width="33" height="23" rx="3.5" fill="#fff"/><path fill-rule="evenodd" clip-rule="evenodd" d="M17.179 16.83a6.802 6.802 0 0 1-4.398 1.601c-3.745 0-6.781-3-6.781-6.7s3.036-6.7 6.78-6.7c1.679 0 3.215.603 4.399 1.6a6.802 6.802 0 0 1 4.398-1.6c3.745 0 6.781 3 6.781 6.7s-3.036 6.7-6.78 6.7a6.802 6.802 0 0 1-4.399-1.6Z" fill="#ED0006"/><path fill-rule="evenodd" clip-rule="evenodd" d="M17.18 16.83a6.653 6.653 0 0 0 2.382-5.099c0-2.042-.925-3.87-2.383-5.1a6.802 6.802 0 0 1 4.399-1.6c3.744 0 6.78 3 6.78 6.7s-3.036 6.7-6.78 6.7a6.802 6.802 0 0 1-4.399-1.6Z" fill="#F9A000"/><path fill-rule="evenodd" clip-rule="evenodd" d="M17.179 16.832a6.653 6.653 0 0 0 2.382-5.1c0-2.042-.924-3.87-2.382-5.1a6.653 6.653 0 0 0-2.383 5.1c0 2.042.925 3.87 2.383 5.1Z" fill="#FF5E00"/><rect x=".5" y=".5" width="33" height="23" rx="3.5" stroke="#EDEDF2"/></svg>
